assets/icons/gamepad.svg

<svg version="1.1" viewBox="0 0 24 24" xmlns="http://www.w3.org/2000/svg">
 <path d="m16.5 9-3 3 3 3h5.5v-6m-13 7.5v5.5h6v-5.5l-3-3m-4.5-4.5h-5.5v6h5.5l3-3m4.5-4.5v-5.5h-6v5.5l3 3 3-3z" fill="#fff"/>
</svg>

<?xml version="1.0" encoding="UTF-8" standalone="no"?>
<svg
   version="1.1"
   width="24"
   height="24"
   viewBox="0 0 24 24"
   id="svg4"
   sodipodi:docname="gamepad.svg"
   inkscape:version="1.1.1 (3bf5ae0d25, 2021-09-20)"
   xmlns:inkscape="http://www.inkscape.org/namespaces/inkscape"
   xmlns:sodipodi="http://sodipodi.sourceforge.net/DTD/sodipodi-0.dtd"
   xmlns="http://www.w3.org/2000/svg"
   xmlns:svg="http://www.w3.org/2000/svg">
  <defs
     id="defs8" />
  <sodipodi:namedview
     id="namedview6"
     pagecolor="#505050"
     bordercolor="#eeeeee"
     borderopacity="1"
     inkscape:pageshadow="0"
     inkscape:pageopacity="0"
     inkscape:pagecheckerboard="0"
     showgrid="false"
     inkscape:zoom="31.041667"
     inkscape:cx="12"
     inkscape:cy="11.983893"
     inkscape:window-width="1920"
     inkscape:window-height="1019"
     inkscape:window-x="0"
     inkscape:window-y="30"
     inkscape:window-maximized="1"
     inkscape:current-layer="svg4" />
  <path
     d="M16.5,9L13.5,12L16.5,15H22V9M9,16.5V22H15V16.5L12,13.5M7.5,9H2V15H7.5L10.5,12M15,7.5V2H9V7.5L12,10.5L15,7.5Z"
     id="path2"
     style="fill:#ffffff" />
</svg>
